src/pos-icons/ballot-recount.svg

<svg height="24" viewBox="0 0 24 24" width="24" xmlns="http://www.w3.org/2000/svg"><path d="m19 12v1.5a4 4 0 0 1 4 4c0 .82-.25 1.58-.67 2.21l-1.09-1.09c.17-.34.26-.72.26-1.12a2.5 2.5 0 0 0 -2.5-2.5v1.5l-2.25-2.25zm0 11v-1.5a4 4 0 0 1 -4-4c0-.82.25-1.58.67-2.21l1.09 1.09c-.17.34-.26.72-.26 1.12a2.5 2.5 0 0 0 2.5 2.5v-1.5l2.25 2.25zm-9-6h-3v-3h3zm0-10v3h-3v-3zm-5 14a2 2 0 0 1 -2-2v-14a2 2 0 0 1 2-2h14a2 2 0 0 1 2 2v6.17c-.5-.11-1-.17-1.5-.17a6.5 6.5 0 0 0 -6.5 6.5c0 1.29.38 2.5 1 3.5zm8-11.5h5v-2h-5zm-2 3.5h-5v5h5zm0-7h-5v5h5z"/></svg>

<?xml version="1.0" encoding="UTF-8"?><!DOCTYPE svg PUBLIC "-//W3C//DTD SVG 1.1//EN" "http://www.w3.org/Graphics/SVG/1.1/DTD/svg11.dtd"><svg xmlns="http://www.w3.org/2000/svg" xmlns:xlink="http://www.w3.org/1999/xlink" version="1.1" id="mdi-ballot-recount" width="24" height="24" viewBox="0 0 24 24"><path d="M19,12V13.5A4,4 0 0,1 23,17.5C23,18.32 22.75,19.08 22.33,19.71L21.24,18.62C21.41,18.28 21.5,17.9 21.5,17.5A2.5,2.5 0 0,0 19,15V16.5L16.75,14.25L19,12M19,23V21.5A4,4 0 0,1 15,17.5C15,16.68 15.25,15.92 15.67,15.29L16.76,16.38C16.59,16.72 16.5,17.1 16.5,17.5A2.5,2.5 0 0,0 19,20V18.5L21.25,20.75L19,23M10,17H7V14H10V17M10,7V10H7V7H10M5,21A2,2 0 0,1 3,19V5A2,2 0 0,1 5,3H19A2,2 0 0,1 21,5V11.17C20.5,11.06 20,11 19.5,11A6.5,6.5 0 0,0 13,17.5C13,18.79 13.38,20 14,21H5M13,9.5H18V7.5H13V9.5M11,13H6V18H11V13M11,6H6V11H11V6Z" /></svg>
